X:1
T:Morning Star
T:F Major            Alexander Gillet, 1807
T:Transcribed from The Hartford Collection of Sacred Harmony, 1807.
T:Benjamin Beddome, 1787      88. 88. (L. M.)
%%score [ 1 2 3 4 ]
L:1/8
Q:1/4=110
M:2/4
K:F
V:1 treble nm="Tr.\n1" snm="Tr.\n1"
V:2 treble nm="Tr.\n2" snm="Tr.\n2"
V:3 treble-8 nm="T." snm="T."
V:4 bass nm="B." snm="B."
V:1
 A2 | A2 A2 | A2 z A | c2 c2 | c2 z d/e/ | f2 f2 | fd cB | AG FE | F3 A | Ac cA | Bd dB | Ac de | %12
 f2 z f | ae cf | %14
"_1. few,  compared  with  his!                                                        We sing the bright and  mor – ning  star,   Je  –  sus,   the   source  of    light   and      love; _______________  See \n2. safe     to     end–less  day.                                                        When shall we reach the glorious height, Where this bright star shall   brigh – test     shine; ______________  Leave" ed cB | %15
 A2 G2 | F3 z | z4 | z4 | z4 | z2 z F | c2 c2 | c3 A | f2 f2 | f3 A | A2 A2 | A3 c | cA AF | F4- | %29
 F4- | F3 c | d2 z B | c2 z A | B2 z G | A2 z c | A2 A2 | (A c2) f | c2 A2 | G3 c | Ac dB | AF BG | %41
 F2 c2 | A4- | A2 |] %44
V:2
"_1. Ye worlds of light,  that     roll  so  near     The     Sa  –  vior's    throne    of        shi  –  ning    bliss,   O     tell     how      mean   your     glo  –  ries     are,     How   faint   and \n2. Midst gloomy darkness  spread  abroad,    This    light    di    –    rects    the       pil   –  grim's  way;   Still,  as      he        goes,     he      finds    the     road,   That   leads   him" F2 | %1
 F2 F2 | F2 z A | A2 A2 | A2 z G | A2 A2 | A2 G2 | FE FG | A3 F | FA AF | GB BG | F2 G2 | A2 z A | %13
 G2 A2 | %14
"_1. few,  compared  with  his!                                                                                      We  sing   the   bright  and  mor –  ning    star,  Je  – sus,    the   source  of   light   and    love;  See\n2. safe     to     end–less  day.                                                                                      When shall we  reach the   glo – rious  height, Where  this  bright star  shall  brightest  shine;  Leave" B2 AG | %15
 F2 E2 | F3 z | z4 | z4 | z4 | z4 | z4 | z2 z F | c2 c2 | c3 A | f2 f2 | e3 A | A2 A2 | A3 c | %29
 cA AF | F3 A | %31
"_1. how   its    rays,   dif – fused  from   far,   Con–duct  us   to       the  realms  above,  Con – duct   us     to       the     realms  a  –  bove.\n2. far     be  – hind    these scenes of night,  And  view  the  lus  – ter     all  di – vine,  And   view  the    lus  –  ter      all       di  –  vine." B2 z G | %32
 A2 z F | G2 z E | F2 z F | F2 F2 | (F A2) G | F2 F2 | E3 F | AF BG | FA GB | AF G2 | A4- | A2 |] %44
V:3
 F2 | c2 c2 | c2 z d/e/ | f2 f2 | f2 z f | fd cB | AG FE | F2 D2 | F3 c | cA Ac | dB Bd | cA dB | %12
 c2 z c | cA fc | %14
"_1. few,  compared  with  his!                          We  sing the bright and morning star,  Je – sus,     the   source  of   light    and     love; __________________________________  See\n2. safe     to     end–less  day.                       When shall we reach the glorious height, Where this bright star shall brigh – test   shine; _________________________________  Leave" BG AB | %15
 c2 B2 | A3 z | z4 | z2 z F | c2 c2 | c3 A | f2 f2 | f3 A | A2 A2 | A3 c | cA AF | F4- | F4- | %28
 F4- | F4- | F3 c | d2 z B | c2 z A | B2 z G | A2 z A | c2 c2 | (c f2) c | A2 F2 | G3 A | FA GB | %40
 Ac fB | A2 G2 | F4- | F2 |] %44
V:4
 F,2 | F,2 F,2 | F,2 z F, | F,2 F,2 | F,2 z B, | A,2 F,2 | F,2 C,2 | F,2 C,2 | F,,3 F, | F,2 F,2 | %10
 G,2 G,2 | A,2 G,2 | F,2 z F, | C,2 F,2 | %14
"_1. few, compared with his!  We sing the bright and morning star,  Je – sus, the spring  of  light   and     love; _____________________________________________________  See \n2. safe  to  endless day. When shall we reach the glorious height, Where this bright star shall brightest shine; _____________________________________________________ Leave" B,2 A,B, | %15
 C2 C,2 | F,3 F, | C2 C2 | C3 A, | F,2 F,2 | F,3 A, | A,2 A,2 | A,3 C | CA, A,F, | [F,,F,]4- | %25
 [F,,F,]4- | [F,,F,]4- | [F,,F,]4- | [F,,F,]4- | [F,,F,]4- | [F,,F,]3 A, | %31
"________________________________________________\nEdited by B. C. Johnston, 2018\n   1. Second staff is apparently Second Treble, though not marked in original.\n   2. Whole piece moved down from G Major to F Major.\n   3. Last two measures changed from dotted quarter & half to half and quarter." B,2 z G, | %32
 A,2 z F, | G,2 z E, | F,2 z F, | F,2 F,2 | F,3 F, | F,2 F,2 | C,3 F, | F,2 G,2 | A,2 B,2 | %41
 C2 C,2 | F,4- | F,2 |] %44

